X: 9459
T: Danza De Santana
R: polka
M: 2/4
K: Bminor
B>B Bd|fe d2|(c4|c4)|B>B Bd|fe dc|e>e ef|dd c2|(B4|B4)|
B>B Bd|fe d2|(c4|c4)|B>B Bd|fe dc|e>e ef|dd c2|
|:B>d cB|AB cA|e>e ef|dd c2|B>d cB|AB cA|e>e ef|dd c2:|(B4|B4)||

